src/images/icons/support.svg

<svg width="32" height="32" viewBox="0 0 32 32" fill="currentColor" xmlns="http://www.w3.org/2000/svg">
<path d="M21.9297 23.8828C21.6386 23.8828 21.4023 24.1191 21.4023 24.4102C21.4023 24.7012 21.6386 24.9375 21.9297 24.9375C22.2208 24.9375 22.457 24.7012 22.457 24.4102C22.457 24.1191 22.2208 23.8828 21.9297 23.8828Z"/>
<path d="M23.2281 22.1775L20.7216 21.3422L19.8218 19.5426C20.6325 18.7175 21.1953 17.6258 21.3851 16.4871L21.4973 15.8145H22.457C23.3294 15.8145 24.0391 15.1048 24.0391 14.2324V10.9102C24.0391 6.5485 20.4906 3 16.1289 3C11.7561 3 8.21875 6.53832 8.21875 10.9102V14.2324C8.21875 14.9199 8.65966 15.5061 9.27344 15.7238V16.3418C9.27344 17.2141 9.98314 17.9238 10.8555 17.9238H11.3186C11.594 18.5237 11.9713 19.0743 12.4355 19.5436L11.5362 21.3422L9.02965 22.1776C6.11528 23.1494 4 26.2174 4 29.4727C4 29.7639 4.23609 30 4.52734 30H27.7305C28.0217 30 28.2578 29.7639 28.2578 29.4727C28.2578 26.2174 26.1426 23.1494 23.2281 22.1775ZM22.9844 14.2324C22.9844 14.5232 22.7478 14.7598 22.457 14.7598H21.6522C21.7945 13.6576 21.8794 12.5482 21.9143 11.4375H22.9844V14.2324ZM9.80078 14.7598C9.51 14.7598 9.27344 14.5232 9.27344 14.2324V11.4375H10.3438C10.379 12.548 10.4636 13.6577 10.6058 14.7597L9.80078 14.7598ZM10.3281 15.8145H10.7604C10.8191 16.1664 10.867 16.522 10.9508 16.8691C10.3192 16.8691 10.3281 16.3179 10.3281 15.8145ZM10.329 10.3828H9.29348C9.56058 6.8485 12.5101 4.05469 16.1289 4.05469C19.7316 4.05469 22.6941 6.84813 22.9643 10.3828H21.9288C21.8909 7.47045 19.5193 5.10938 16.6009 5.10938H15.657C12.7387 5.10938 10.3669 7.47045 10.329 10.3828ZM15.6569 6.16406H16.6009C19.2395 6.16406 20.9236 8.42128 20.8709 10.8991L20.8708 10.9043C18.8236 10.6118 16.9421 9.92291 15.4471 8.4279C15.3482 8.32901 15.2141 8.27346 15.0742 8.27344C13.658 8.27344 12.3023 8.9187 11.4061 10.0088C11.627 7.86153 13.4422 6.16406 15.6569 6.16406ZM12.0441 16.8691C11.7801 15.991 11.4781 13.407 11.4113 11.7511C12.3139 10.5476 13.2237 9.4284 14.8658 9.33408C16.5398 10.9272 18.6009 11.6452 20.8385 11.965C20.7695 13.4277 20.5836 14.8708 20.3448 16.3136C20.0655 17.9887 18.8156 19.5035 17.1656 19.916C16.485 20.0855 15.7731 20.0855 15.0925 19.916C14.0622 19.6585 13.1175 18.9456 12.5078 17.9238H13.5829C13.8006 18.5376 14.3867 18.9785 15.0742 18.9785H16.1289C17.003 18.9785 17.7109 18.2706 17.7109 17.3965C17.7109 16.5242 17.0012 15.8145 16.1289 15.8145H15.0742C14.3714 15.8145 13.7939 16.2684 13.582 16.8691H12.0441ZM15.0299 20.9833C15.6735 21.1192 16.3408 21.1342 16.9913 21.0275L16.0595 22.0129L15.0299 20.9833ZM15.3345 22.7796L13.6618 24.5484C13.201 23.6663 12.8064 22.7511 12.4812 21.8106L13.1093 20.5543L15.3345 22.7796ZM19.0591 20.3757L19.7765 21.8105C19.4513 22.7514 19.0566 23.6668 18.5957 24.5492L16.8055 22.7589L19.0591 20.3757ZM14.5469 17.3965C14.5469 17.1053 14.783 16.8691 15.0742 16.8691H16.1289C16.4197 16.8691 16.6562 17.1057 16.6562 17.3965C16.6562 17.6877 16.4201 17.9238 16.1289 17.9238H15.0742C14.7834 17.9238 14.5469 17.6873 14.5469 17.3965ZM5.07578 28.9453C5.28477 26.3329 7.02337 23.9584 9.36319 23.1781L11.583 22.4384C12.4483 24.8305 13.8473 26.8072 15.1792 28.9453H5.07578ZM16.1289 28.4752C15.5067 27.4763 14.8006 26.5241 14.1999 25.5144L16.0805 23.5256L18.0622 25.5072C17.4592 26.5218 16.7539 27.4729 16.1289 28.4752ZM17.0787 28.9453C18.4032 26.8188 19.8126 24.8225 20.6748 22.4384L22.8946 23.1781C25.2344 23.9584 26.973 26.3329 27.182 28.9453H17.0787Z"/>
<path d="M25.5972 26.8112C25.2447 26.1058 24.7285 25.4791 24.1043 24.9989C23.8734 24.8212 23.5424 24.8644 23.3648 25.0953C23.1872 25.3262 23.2304 25.6572 23.4612 25.8348C23.9597 26.2184 24.372 26.719 24.6536 27.2825C24.784 27.5435 25.1009 27.6486 25.361 27.5186C25.6215 27.3885 25.7272 27.0718 25.5972 26.8112Z"/>
</svg>

<svg xmlns="http://www.w3.org/2000/svg" fill="currentColor" viewBox="0 0 32 32">
  <path d="M21.93 23.883a.528.528 0 1 0 0 1.055.528.528 0 0 0 0-1.055Z"/>
  <path d="m23.228 22.177-2.506-.835-.9-1.8a5.775 5.775 0 0 0 1.563-3.055l.112-.672h.96c.872 0 1.582-.71 1.582-1.583V10.91c0-4.362-3.548-7.91-7.91-7.91a7.905 7.905 0 0 0-7.91 7.91v3.322c0 .688.44 1.274 1.054 1.492v.618c0 .872.71 1.582 1.582 1.582h.464a5.72 5.72 0 0 0 1.116 1.62l-.899 1.798-2.506.836C6.115 23.149 4 26.218 4 29.473c0 .29.236.527.527.527H27.73a.527.527 0 0 0 .528-.527c0-3.256-2.115-6.324-5.03-7.296Zm-.244-7.945a.528.528 0 0 1-.527.528h-.805a34.405 34.405 0 0 0 .262-3.322h1.07v2.794Zm-13.183.528a.528.528 0 0 1-.528-.528v-2.794h1.07l.007.165v.006c.037 1.059.125 2.135.256 3.15H9.8Zm1.054 2.11a.528.528 0 0 1-.527-.528v-.527h.432l.113.672c.021.128.047.256.078.382h-.096Zm-.526-6.487H9.293a6.851 6.851 0 0 1 6.836-6.328c3.603 0 6.565 2.793 6.835 6.328H21.93c-.038-2.913-2.41-5.274-5.328-5.274h-.944c-2.918 0-5.29 2.361-5.328 5.274Zm5.328-4.219h.944c2.363 0 4.275 1.933 4.274 4.293 0 .166-.001.31-.004.442v.005l-.66-.094a8.474 8.474 0 0 1-4.764-2.382.527.527 0 0 0-.373-.155 4.771 4.771 0 0 0-3.668 1.736c.221-2.147 2.036-3.845 4.25-3.845ZM12.044 16.87c-.264-.878-.566-3.462-.633-5.118l.71-.946a3.712 3.712 0 0 1 2.745-1.47 9.538 9.538 0 0 0 5.196 2.519l.776.111a32.465 32.465 0 0 1-.31 3.223v.001c-.048.327-.086.537-.183 1.125-.28 1.675-1.53 3.19-3.18 3.602a4.29 4.29 0 0 1-2.072 0c-1.03-.258-1.976-.97-2.585-1.992h1.075a1.584 1.584 0 0 0 1.491 1.055h1.055a1.582 1.582 0 1 0 0-3.164h-1.055c-.703 0-1.28.453-1.492 1.054h-1.538Zm2.986 4.114a5.333 5.333 0 0 0 1.961.044l-.931.986-1.03-1.03Zm.305 1.797-1.673 1.768a20.097 20.097 0 0 1-1.18-2.737l.627-1.257 2.226 2.226Zm3.724-2.404.717 1.434c-.325.941-.72 1.857-1.18 2.74l-1.79-1.791 2.253-2.383Zm-4.512-2.98c0-.29.236-.527.527-.527h1.055a.528.528 0 0 1 0 1.055h-1.055a.528.528 0 0 1-.527-.527Zm-9.471 11.55c.209-2.613 1.947-4.988 4.287-5.768l2.22-.74c.407 1.126.91 2.215 1.501 3.256l.003.006c.435.764.917 1.5 1.443 2.204l.65 1.041H5.075Zm11.053-.47-.715-1.149a20.088 20.088 0 0 1-1.214-1.813l1.88-1.988 1.982 1.981a20.09 20.09 0 0 1-1.192 1.782c-.026.035.01-.02-.741 1.186Zm.95.47.648-1.042a21.42 21.42 0 0 0 1.454-2.222l.008-.014v-.002a21.117 21.117 0 0 0 1.486-3.228l2.22.74c2.34.78 4.078 3.155 4.287 5.767H17.079Z"/>
  <path d="M25.597 26.811A5.274 5.274 0 0 0 24.104 25a.527.527 0 1 0-.643.836c.499.383.911.884 1.193 1.447a.527.527 0 1 0 .943-.47Z"/>
</svg>
